X:1
T:Derbyshire, 87.87 D
T:Derbyshire, 87.87 D
T:Thomas Martin Towe, 1909
T:Public Domain Courtesy of the Cyber Hymnal™
C:Thomas Martin Towe, 1909
Z:Public Domain
Z:Courtesy of the Cyber Hymnal™
%%score ( 1 2 ) ( 3 4 )
L:1/8
Q:1/4=103
M:4/4
K:Ab
V:1 treble 
V:2 treble 
V:3 bass 
V:4 bass 
V:1
 [CE]>[CE] | [Ec]2 [Ec]2 [Ec]2 (B>c) | [Fe]4 [Fd]2 [Fd]>[Ec] | [EB]2 [EB]2 [Ge]2 [EB]2 | %4
 [Ec]6 [CE]>[CE] | [Ec]2 [Ec]2 [Ec]2 (B>c) | [Fe]4 [Fd]2 [Ec]>[Ec] | [EB]2 [Ge]2 [Ae]2 [A=d]2 | %8
 [Ge]6 E>E | [CA]4 [CE]2 [EA]>[EA] | [Ac]4 [EA]2 [Ac]>[Ac] | [Ae]3 [Ae] [Gd]2 [Ac]2 | (B4 e2) E>E | %13
 [CA]4 [CE]2 [EA]>[EA] | [Ac]4 [EA]2 [Ec]>[Ec] | [Ee]3 [Fd] [Ec]2 [DB]2 | [CA]6 |] %17
V:2
 x2 | x6 _G2 | x8 | x8 | x8 | x6 _G2 | x8 | x8 | x6 E>E | x8 | x8 | x8 | G6 E>E | x8 | x8 | x8 | %16
 x6 |] %17
V:3
 A,>A, | A,2 A,2 A,2 A,2 | [D,A,]4 [D,A,]2 [D,A,]>[A,,A,] | [E,G,]2 [E,G,]2 [E,B,]2 [E,G,]2 | %4
 A,6 A,>A, | A,2 A,2 A,2 A,2 | [D,A,]4 [D,A,]2 [A,,A,]>[A,,A,] | %7
 [B,,G,]2 [B,,B,]2 [B,,B,]2 [B,,B,]2 | [E,B,]6 [E,G,]>[E,G,] | [A,,A,]4 [A,,A,]2 [A,C]>[A,C] | %10
 [A,E]4 [A,C]2 [A,E]>[A,E] | [A,C]3 [CE] [B,E]2 [A,E]2 | (E4 B,2) [E,G,]>[E,G,] | %13
 [A,,A,]4 [A,,A,]2 [A,C]>[A,C] | [A,E]4 [A,C]2 A,>A, | [C,A,]3 [D,A,] [E,A,]2 [E,G,]2 | [A,,A,]6 |] %17
V:4
 A,>A, | A,2 A,2 A,2 A,2 | x8 | x8 | A,6 A,>A, | A,2 A,2 A,2 A,2 | x8 | x8 | x8 | x8 | x8 | x8 | %12
 E,6 x2 | x8 | x6 A,>A, | x8 | x6 |] %17

